src/pos-icons/dice-d8.svg

<svg height="24" viewBox="0 0 24 24" width="24" xmlns="http://www.w3.org/2000/svg"><path d="m11.1 10.5c0-.55.4-1 .9-1s.9.45.9 1-.4 1-.9 1-.9-.45-.9-1m.9 2.15c-.61 0-1.1.49-1.1 1.1s.49 1.1 1.1 1.1 1.1-.49 1.1-1.1-.49-1.1-1.1-1.1m9.54.55-8.3 8.3c-.7.7-1.7.7-2.4 0l-8.3-8.3c-.7-.7-.7-1.7 0-2.4l8.3-8.3c.7-.7 1.7-.7 2.4 0l8.3 8.3c.6.7.6 1.7 0 2.4m-6.94.7c0-.77-.46-1.44-1.16-1.83.56-.39.94-1 .94-1.69 0-1.18-1.07-2.13-2.38-2.13s-2.37.95-2.37 2.13c0 .69.37 1.3.93 1.69-.7.39-1.16 1.06-1.16 1.83 0 1.22 1.16 2.2 2.6 2.2s2.6-.98 2.6-2.2z"/></svg>

<?xml version="1.0" encoding="UTF-8"?><!DOCTYPE svg PUBLIC "-//W3C//DTD SVG 1.1//EN" "http://www.w3.org/Graphics/SVG/1.1/DTD/svg11.dtd"><svg xmlns="http://www.w3.org/2000/svg" xmlns:xlink="http://www.w3.org/1999/xlink" version="1.1" id="mdi-dice-d8" width="24" height="24" viewBox="0 0 24 24"><path d="M11.1 10.5C11.1 9.95 11.5 9.5 12 9.5S12.9 9.95 12.9 10.5 12.5 11.5 12 11.5 11.1 11.05 11.1 10.5M12 12.65C11.39 12.65 10.9 13.14 10.9 13.75C10.9 14.36 11.39 14.85 12 14.85S13.1 14.36 13.1 13.75 12.61 12.65 12 12.65M21.54 13.2L13.24 21.5C12.54 22.2 11.54 22.2 10.84 21.5L2.54 13.2C1.84 12.5 1.84 11.5 2.54 10.8L10.84 2.5C11.54 1.8 12.54 1.8 13.24 2.5L21.54 10.8C22.14 11.5 22.14 12.5 21.54 13.2M14.6 13.9C14.6 13.13 14.14 12.46 13.44 12.07C14 11.68 14.38 11.07 14.38 10.38C14.38 9.2 13.31 8.25 12 8.25S9.63 9.2 9.63 10.38C9.63 11.07 10 11.68 10.56 12.07C9.86 12.46 9.4 13.13 9.4 13.9C9.4 15.12 10.56 16.1 12 16.1S14.6 15.12 14.6 13.9Z" /></svg>
